frontend/src/assets/Gastroenterologist.svg

<svg width="126" height="126" viewBox="0 0 126 126" fill="none" xmlns="http://www.w3.org/2000/svg">
<circle cx="63.1684" cy="62.8325" r="62.8325" fill="url(#paint0_linear_4741_2378)"/>
<path d="M64.5774 87.6246C64.5774 86.8564 64.2953 86.1312 63.6456 85.6477C63.1923 85.3102 62.7945 84.935 62.4822 84.5145C62.3009 84.2727 62.1473 84.0234 62.0162 83.7717C61.8676 83.4795 61.7493 83.1874 61.6562 82.8978C61.5505 82.5653 61.4749 82.238 61.4194 81.9182C61.3564 81.553 61.3237 81.2005 61.3011 80.8555C61.2784 80.4651 61.2734 80.0925 61.2734 79.7349C61.2734 79.405 61.2708 79.0852 61.2708 78.793V78.5814V77.1081V76.5239C61.2708 76.5239 61.2708 68.415 61.2708 65.5896C61.2708 64.2524 60.8855 63.0159 59.702 61.8323C57.0603 59.1906 53.0034 60.213 52.7616 60.135L43.58 62.3662C45.9572 65.6047 49.2813 68.1934 53.3281 69.6743V73.0865C39.6288 76.9394 29.6816 88.7954 29.6816 105.527H42.6884H51.7066V103.575C51.7066 102.55 51.7595 101.613 51.8704 100.752C51.9787 99.8885 52.1474 99.0977 52.3842 98.3724C52.5427 97.8889 52.7342 97.4331 52.9584 97.005C53.258 96.4334 53.6258 95.9172 54.0539 95.4638C54.3006 95.2045 56.0988 93.1797 58.7026 93.1797C62.8877 93.18 64.5774 91.0294 64.5774 87.6246Z" fill="#F7DECE"/>
<path d="M71.895 72.7262V67.6745C75.7604 65.2293 79.5329 57.8257 79.5329 48.9136V43.0963C78.9638 31.4469 69.057 22.4642 57.4075 23.0334C46.1936 23.5824 37.4528 32.7866 37.3293 43.8669L32.6907 50.233C32.313 50.7341 32.1317 51.2832 32.4314 51.8599C32.7412 52.4467 33.3934 52.555 33.9222 52.6356L37.7424 53.2172L38.1025 56.8435C38.1025 56.8435 52.9098 56.899 55.2996 56.899C65.3575 56.899 64.796 59.6388 64.796 65.5895C64.796 68.4149 64.796 76.0126 64.796 76.0126V76.3576C64.796 76.685 64.791 77.0023 64.791 77.3019C64.791 77.6696 64.8213 78.0146 64.8213 78.3218C64.8213 78.9715 65.4333 79.664 65.5264 79.7773C65.5793 79.8403 65.6423 79.9008 65.7179 79.9662C65.8035 80.0368 65.9093 80.1072 66.0452 80.1802C66.1988 80.2658 66.3927 80.349 66.6344 80.427C66.9115 80.5151 67.2564 80.5932 67.6695 80.6536C67.9918 80.6965 68.3594 80.7316 68.7749 80.7467C69.5229 80.7065 70.3413 80.7543 71.1799 80.9482C76.7302 82.2224 80.6485 90.9357 75.0932 97.6972C69.5355 104.459 61.4368 102.114 58.1378 100.18C57.3395 99.7142 55.9369 98.9688 55.675 99.9938C55.5667 100.417 55.4911 100.905 55.4307 101.454C55.3652 102.082 55.3273 102.787 55.3299 103.575V105.526H81.4644H96.9391C96.9389 88.2311 86.3094 76.146 71.895 72.7262Z" fill="#F7DECE"/>
<mask id="mask0_4741_2378" style="mask-type:alpha" maskUnits="userSpaceOnUse" x="29" y="23" width="68" height="83">
<path d="M64.5793 87.6246C64.5793 86.8564 64.2973 86.1312 63.6476 85.6477C63.1942 85.3102 62.7965 84.935 62.4841 84.5145C62.3028 84.2727 62.1492 84.0234 62.0182 83.7717C61.8696 83.4795 61.7513 83.1874 61.6581 82.8978C61.5524 82.5653 61.4768 82.238 61.4214 81.9182C61.3584 81.553 61.3256 81.2005 61.3031 80.8555C61.2804 80.4651 61.2754 80.0925 61.2754 79.7349C61.2754 79.405 61.2728 79.0852 61.2728 78.793V78.5814V77.1081V76.5239C61.2728 76.5239 61.2728 68.415 61.2728 65.5896C61.2728 64.2524 60.8874 63.0159 59.704 61.8323C57.0623 59.1906 53.0053 60.213 52.7636 60.135L43.582 62.3662C45.9592 65.6047 49.2833 68.1934 53.3301 69.6743V73.0865C39.6308 76.9394 29.6836 88.7954 29.6836 105.527H42.6904H51.7086V103.575C51.7086 102.55 51.7614 101.613 51.8723 100.752C51.9806 99.8885 52.1494 99.0977 52.3861 98.3724C52.5447 97.8889 52.7362 97.4331 52.9604 97.005C53.26 96.4334 53.6278 95.9172 54.0558 95.4638C54.3026 95.2045 56.1007 93.1797 58.7046 93.1797C62.8896 93.18 64.5793 91.0294 64.5793 87.6246Z" fill="white"/>
<path d="M71.8969 72.7262V67.6745C75.7624 65.2293 79.5349 57.8257 79.5349 48.9136V43.0963C78.9658 31.4469 69.0589 22.4642 57.4095 23.0334C46.1956 23.5824 37.4547 32.7866 37.3313 43.8669L32.6927 50.233C32.3149 50.7341 32.1336 51.2832 32.4334 51.8599C32.7431 52.4467 33.3954 52.555 33.9242 52.6356L37.7444 53.2172L38.1044 56.8435C38.1044 56.8435 52.9118 56.899 55.3016 56.899C65.3595 56.899 64.7979 59.6388 64.7979 65.5895C64.7979 68.4149 64.7979 76.0126 64.7979 76.0126V76.3576C64.7979 76.685 64.7929 77.0023 64.7929 77.3019C64.7929 77.6696 64.8232 78.0146 64.8232 78.3218C64.8232 78.9715 65.4352 79.664 65.5284 79.7773C65.5812 79.8403 65.6442 79.9008 65.7198 79.9662C65.8054 80.0368 65.9113 80.1072 66.0472 80.1802C66.2008 80.2658 66.3946 80.349 66.6364 80.427C66.9134 80.5152 67.2583 80.5932 67.6714 80.6536C67.9938 80.6965 68.3614 80.7316 68.7769 80.7467C69.5249 80.7065 70.3433 80.7543 71.1818 80.9482C76.7321 82.2224 80.6505 90.9357 75.0951 97.6972C69.5374 104.459 61.4387 102.114 58.1397 100.18C57.3415 99.7142 55.9388 98.9688 55.6769 99.9938C55.5686 100.417 55.493 100.905 55.4326 101.454C55.3672 102.082 55.3293 102.787 55.3319 103.575V105.526H81.4663H96.9411C96.9409 88.2311 86.3114 76.146 71.8969 72.7262Z" fill="#F7DECE"/>
</mask>
<g mask="url(#mask0_4741_2378)">
<rect x="29.6836" y="72.5664" width="67.2573" height="33.6286" fill="#577CFF"/>
</g>
<defs>
<linearGradient id="paint0_linear_4741_2378" x1="63.1684" y1="0" x2="63.1684" y2="125.665" gradientUnits="userSpaceOnUse">
<stop stop-color="#AFC1DC"/>
<stop offset="1" stop-color="#E2E5ED"/>
</linearGradient>
</defs>
</svg>

<svg id="Layer_1" data-name="Layer 1" xmlns="http://www.w3.org/2000/svg" xmlns:xlink="http://www.w3.org/1999/xlink" viewBox="0 0 125.67 125.67"><defs><style>.cls-1{fill:#fff;}.cls-2{fill:#f7dece;}.cls-3{fill:url(#linear-gradient);}.cls-4{mask:url(#mask);}.cls-5{fill:#1aa77e;}</style><linearGradient id="linear-gradient" x1="63.17" y1="128" x2="63.17" y2="2.33" gradientTransform="matrix(1, 0, 0, -1, -0.34, 128)" gradientUnits="userSpaceOnUse"><stop offset="0" stop-color="#afc1dc"/><stop offset="1" stop-color="#e2e5ed"/></linearGradient><mask id="mask" x="29.35" y="23.01" width="67.26" height="83.19" maskUnits="userSpaceOnUse"><g transform="translate(-0.34)"><g id="mask0_4741_2378" data-name="mask0 4741 2378"><path class="cls-1" d="M64.58,87.62a2.37,2.37,0,0,0-.93-2,5.77,5.77,0,0,1-1.17-1.14,5.54,5.54,0,0,1-.82-1.61,7.35,7.35,0,0,1-.24-1c-.06-.37-.09-.72-.12-1.06s0-.77,0-1.13,0-.64,0-.94V65.59a5,5,0,0,0-1.57-3.76c-2.64-2.64-6.69-1.62-6.94-1.7l-9.18,2.24a21,21,0,0,0,9.75,7.3v3.42c-13.7,3.85-23.65,15.71-23.65,32.44h22v-2a22.35,22.35,0,0,1,.16-2.82,12.8,12.8,0,0,1,.52-2.38A8.77,8.77,0,0,1,53,97a7.07,7.07,0,0,1,1.1-1.54,6.68,6.68,0,0,1,4.64-2.28C62.89,93.18,64.58,91,64.58,87.62Z"/><path class="cls-2" d="M71.9,72.73V67.67c3.86-2.44,7.63-9.84,7.63-18.76V43.1a21.11,21.11,0,0,0-42.2.77l-4.64,6.36a1.46,1.46,0,0,0-.26,1.63,1.82,1.82,0,0,0,1.49.78l3.82.58.36,3.62,17.2.06c10.06,0,9.5,2.74,9.5,8.69V76.36c0,.32,0,.64,0,.94s0,.71,0,1a2.76,2.76,0,0,0,.71,1.46,1.69,1.69,0,0,0,.19.19,1.89,1.89,0,0,0,.33.21,2.82,2.82,0,0,0,.59.25,6.27,6.27,0,0,0,1,.22,10.62,10.62,0,0,0,1.11.1,8.41,8.41,0,0,1,2.4.2c5.55,1.27,9.47,10,3.92,16.75s-13.66,4.41-17,2.48c-.8-.47-2.2-1.21-2.46-.19a10.5,10.5,0,0,0-.25,1.46c-.06.63-.1,1.34-.1,2.12v2H96.94C96.94,88.23,86.31,76.15,71.9,72.73Z"/></g></g></mask></defs><title>Gastroenterologist</title><circle class="cls-3" cx="62.83" cy="62.83" r="62.83"/><path class="cls-2" d="M64.58,87.62a2.37,2.37,0,0,0-.93-2,5.52,5.52,0,0,1-1.17-1.14,5.54,5.54,0,0,1-.82-1.61,6.08,6.08,0,0,1-.24-1,10.43,10.43,0,0,1-.12-1.06c0-.39,0-.77,0-1.13V65.59a5,5,0,0,0-1.57-3.76c-2.64-2.64-6.7-1.62-6.94-1.7l-9.18,2.24a21,21,0,0,0,9.75,7.3v3.42c-13.7,3.85-23.65,15.71-23.65,32.44h22v-2a22.35,22.35,0,0,1,.16-2.82,13.67,13.67,0,0,1,.51-2.38A8.8,8.8,0,0,1,53,97a7.38,7.38,0,0,1,1.09-1.54,6.74,6.74,0,0,1,4.65-2.28C62.89,93.18,64.58,91,64.58,87.62Z" transform="translate(-0.34)"/><path class="cls-2" d="M71.89,72.73V67.67c3.87-2.44,7.64-9.84,7.64-18.76V43.1a21.11,21.11,0,0,0-42.2.77l-4.64,6.36a1.46,1.46,0,0,0-.26,1.63,1.81,1.81,0,0,0,1.49.78l3.82.58.36,3.62,17.2.06c10.06,0,9.5,2.74,9.5,8.69V76.36c0,.32,0,.64,0,.94s0,.71,0,1a2.69,2.69,0,0,0,.71,1.46,1.69,1.69,0,0,0,.19.19,1.57,1.57,0,0,0,.33.21,3,3,0,0,0,.58.25,6.66,6.66,0,0,0,1,.22,10.66,10.66,0,0,0,1.1.1,8.45,8.45,0,0,1,2.41.2c5.55,1.27,9.47,10,3.91,16.75s-13.65,4.41-17,2.48c-.8-.47-2.2-1.21-2.47-.19a12.35,12.35,0,0,0-.24,1.46c-.06.63-.1,1.34-.1,2.12v2H96.94C96.94,88.23,86.31,76.15,71.89,72.73Z" transform="translate(-0.34)"/><g class="cls-4"><rect class="cls-5" x="29.35" y="72.57" width="67.26" height="33.63"/></g></svg>
